cssgg/align-right.svg

<svg
  width="24"
  height="24"
  viewBox="0 0 24 24"
  fill="none"
  xmlns="http://www.w3.org/2000/svg"
>
  <path
    fill-rule="evenodd"
    clip-rule="evenodd"
    d="M15.9991 13.0039L9.99907 12.9911L9.99054 16.9911L15.9905 17.0039L15.9991 13.0039Z"
    fill="currentColor"
    fill-opacity="0.5"
  />
  <path
    fill-rule="evenodd"
    clip-rule="evenodd"
    d="M19.978 18.0021L20.0036 6.00214L18.0036 5.99788L17.978 17.9979L19.978 18.0021Z"
    fill="currentColor"
  />
  <path
    fill-rule="evenodd"
    clip-rule="evenodd"
    d="M3.9964 10.9851L15.9964 11.0107L16.0049 7.0107L4.00493 6.98512L3.9964 10.9851Z"
    fill="currentColor"
  />
</svg>

<svg viewBox="0 0 24 24" xmlns="http://www.w3.org/2000/svg"><path fill-opacity=".5" fill-rule="evenodd" d="M15.99 13l-6.01-.02 -.01 4 5.99.01 0-4Z"/><g fill-rule="evenodd"><path d="M19.978 18l.02-12 -2-.01 -.03 12 2 0Z"/><path d="M3.99 10.98l12 .02 0-4 -12-.03 -.01 3.99Z"/></g></svg>
